X: 23519
T: Liberty
R: reel
M: 4/4
K: Dmajor
|:f2A2 f2A2|fgfe dd^ef|g2B2 g2B2|gagf ecde|
f2A2 f2A2|fafe d2cd|efed cABc|1 dfec d2de:|2 dfec d2FG||
|:A2AB AGFE|DFAD FDAF|A2AB AGFD|E3E E2FG|
A2AB AGFE|DFAd f2ef|gfed cABc|dfec d2:|

